src/components/Icon/utils/svgsOptimized/bold.svg

<svg width="24" height="24" viewBox="0 0 24 24"  xmlns="http://www.w3.org/2000/svg">
<path d="M14.6399 12.88C14.1899 12.4 13.6499 12.13 13.0799 11.96C13.5699 11.77 14.0299 11.5 14.3999 11.05C15.8999 9.24 15.0799 6.49 12.6999 6.09C12.3699 6.04 12.0599 6.01 11.7499 6C10.3399 6 9.48992 6 8.99992 6.24C8.95992 6.26 8.91992 6.27 8.88992 6.29C8.59992 6.47 8.47992 6.77 8.47992 7.25V16.76C8.47992 18.01 9.27992 18 11.7299 18H11.7199C12.0799 18 12.4499 17.98 12.8299 17.93C15.3599 17.6 16.4099 14.77 14.6399 12.88ZM13.5199 9.1C13.6599 10.96 11.6999 11.32 10.0599 11.37V7.22C11.6799 6.98 13.3899 7.27 13.5199 9.1ZM13.5399 15.9C12.9099 16.86 11.3799 16.88 10.0599 16.7V12.6C10.9199 12.62 11.8199 12.72 12.5699 12.97C13.9099 13.4 14.1999 14.9 13.5499 15.9H13.5399Z" />
</svg>

<?xml version="1.0" encoding="utf-8"?><svg width="24" height="24" xmlns="http://www.w3.org/2000/svg" viewBox="0 0 24 24"><path d="M14.64 12.88c-.45-.48-.99-.75-1.56-.92.49-.19.95-.46 1.32-.91 1.5-1.81.68-4.56-1.7-4.96-.33-.05-.64-.08-.95-.09-1.41 0-2.26 0-2.75.24-.04.02-.08.03-.11.05-.29.18-.41.48-.41.96v9.51c0 1.25.8 1.24 3.25 1.24h-.01c.36 0 .73-.02 1.11-.07 2.53-.33 3.58-3.16 1.81-5.05ZM13.52 9.1c.14 1.86-1.82 2.22-3.46 2.27V7.22c1.62-.24 3.33.05 3.46 1.88Zm.02 6.8c-.63.96-2.16.98-3.48.8v-4.1c.86.02 1.76.12 2.51.37 1.34.43 1.63 1.93.98 2.93h-.01Z"/></svg>
